web/images/icons/bin.svg

<svg height="512" viewBox="0 0 460 512" width="460" xmlns="http://www.w3.org/2000/svg"><g fill="#d9534f"><path d="m441.378906 70.621094h-105.929687v-34.691406c0-19.808594-16.121094-35.929688-35.929688-35.929688h-140.003906c-19.808594 0-35.929687 16.121094-35.929687 35.929688v34.691406h-105.929688c-9.75 0-17.65625 7.894531-17.65625 17.65625 0 9.757812 7.90625 17.652344 17.65625 17.652344h18.40625l14.652344 336.96875c1.679687 38.757812 33.386718 69.101562 72.175781 69.101562h213.257813c38.785156 0 70.488281-30.34375 72.171874-69.101562l14.652344-336.96875h18.40625c9.75 0 17.65625-7.894532 17.65625-17.652344 0-9.761719-7.90625-17.65625-17.65625-17.65625zm-281.863281-35.3125h140.003906l.617188 35.3125h-141.03125zm213.527344 406.070312c-.863281 19.792969-17.066407 35.3125-36.898438 35.3125h-213.257812c-19.828125 0-36.035157-15.519531-36.898438-35.3125l-14.585937-335.449218h316.226562z"/><path d="m229.515625 406.070312c-9.75 0-17.652344-7.898437-17.652344-17.65625v-211.863281c0-9.757812 7.902344-17.652343 17.652344-17.652343s17.65625 7.894531 17.65625 17.652343v211.863281c0 9.757813-7.90625 17.65625-17.65625 17.65625z"/><path d="m300.136719 406.070312c-9.75 0-17.652344-7.898437-17.652344-17.65625v-211.863281c0-9.757812 7.902344-17.652343 17.652344-17.652343s17.65625 7.894531 17.65625 17.652343v211.863281c0 9.757813-7.90625 17.65625-17.65625 17.65625z"/><path d="m158.898438 406.070312c-9.753907 0-17.65625-7.898437-17.65625-17.65625v-211.863281c0-9.757812 7.902343-17.652343 17.65625-17.652343 9.75 0 17.652343 7.894531 17.652343 17.652343v211.863281c0 9.757813-7.902343 17.65625-17.652343 17.65625z"/></g></svg>

<?xml version="1.0" encoding="UTF-8"?>
<svg width="460px" height="512px" viewBox="0 0 460 512" version="1.1" xmlns="http://www.w3.org/2000/svg" xmlns:xlink="http://www.w3.org/1999/xlink">
    <!-- Generator: Sketch 51.3 (57544) - http://www.bohemiancoding.com/sketch -->
    <title>bin</title>
    <desc>Created with Sketch.</desc>
    <defs></defs>
    <g id="Page-1" stroke="none" stroke-width="1" fill="none" fill-rule="evenodd">
        <g id="bin" fill="#D9534F" fill-rule="nonzero">
            <path d="M441.378906,70.621094 L335.449219,70.621094 L335.449219,35.929688 C335.449219,16.121094 319.328125,0 299.519531,0 L159.515625,0 C139.707031,0 123.585938,16.121094 123.585938,35.929688 L123.585938,70.621094 L17.65625,70.621094 C7.90625,70.621094 -2.84217094e-14,78.515625 -2.84217094e-14,88.277344 C-2.84217094e-14,98.035156 7.90625,105.929688 17.65625,105.929688 L36.0625,105.929688 L50.714844,442.898438 C52.394531,481.65625 84.101562,512 122.890625,512 L336.148438,512 C374.933594,512 406.636719,481.65625 408.320312,442.898438 L422.972656,105.929688 L441.378906,105.929688 C451.128906,105.929688 459.035156,98.035156 459.035156,88.277344 C459.035156,78.515625 451.128906,70.621094 441.378906,70.621094 Z M159.515625,35.308594 L299.519531,35.308594 L300.136719,70.621094 L159.105469,70.621094 L159.515625,35.308594 Z M373.042969,441.378906 C372.179688,461.171875 355.976562,476.691406 336.144531,476.691406 L122.886719,476.691406 C103.058594,476.691406 86.851562,461.171875 85.988281,441.378906 L71.402344,105.929688 L387.628906,105.929688 L373.042969,441.378906 Z" id="Shape"></path>
            <path d="M229.515625,406.070312 C219.765625,406.070312 211.863281,398.171875 211.863281,388.414062 L211.863281,176.550781 C211.863281,166.792969 219.765625,158.898438 229.515625,158.898438 C239.265625,158.898438 247.171875,166.792969 247.171875,176.550781 L247.171875,388.414062 C247.171875,398.171875 239.265625,406.070312 229.515625,406.070312 Z" id="Shape"></path>
            <path d="M300.136719,406.070312 C290.386719,406.070312 282.484375,398.171875 282.484375,388.414062 L282.484375,176.550781 C282.484375,166.792969 290.386719,158.898438 300.136719,158.898438 C309.886719,158.898438 317.792969,166.792969 317.792969,176.550781 L317.792969,388.414062 C317.792969,398.171875 309.886719,406.070312 300.136719,406.070312 Z" id="Shape"></path>
            <path d="M158.898438,406.070312 C149.144531,406.070312 141.242188,398.171875 141.242188,388.414062 L141.242188,176.550781 C141.242188,166.792969 149.144531,158.898438 158.898438,158.898438 C168.648438,158.898438 176.550781,166.792969 176.550781,176.550781 L176.550781,388.414062 C176.550781,398.171875 168.648438,406.070312 158.898438,406.070312 Z" id="Shape"></path>
        </g>
    </g>
</svg>
